X: 82
M:2/4
L:1/16
K:G
u((3DEF)|.G2{A}.G.F GABc|(dB).g.e dBAc|(BE){F}.E.D EFGA|(BG)(AF) GFED|
(Be).e.d e3f|(ge).a.f gfed|(BE){F}.E.D EFGA|(Bd).A.F G2:|


